X:1
T:Title
%%score { ( 1 3 ) | 2 }
L:1/8
M:9/8
K:G
V:1 treble nm="Grand Piano"
V:3 treble 
V:2 treble 
V:1
 z3 z3[Q:1/4=108] G2 B | d3- d2 d e2 d | d3 .B3 D2 G | z3 z3 .d3 | [FA]6 G2 B | d3- d2 d e2 d | %6
 d3 .B3 D2 G | B3- B2 [EAc] [DGB]2 [CDA] |[M:3/4] [B,DG]6 |[M:3/8] [Ec]2 [Ec] | %10
[M:9/8] [Ec]3- [Ec]2 [Ec] B2 e | d6 G2 G | [FA]3- [FA]2 [FA] [GB]2 [GB] | [FA]6 d2 d | %14
 .d d2- d3 e2 d | B6 D2 G | B3- B2 [EAc] [DGB]2 [CDA] |[M:3/4] [B,DG]6 |] %18
V:2
 z3 z3 [G,B,D]2 [G,G] | [G,B,G]3- [G,B,G]2 [G,B,G] [G,CG]2 [G,B,G] | %2
 [G,B,G]3 .[G,DG]3 [G,B,]2 [G,B,D] | [G,DG]3- [G,DG]2 [G,DG][K:bass] [F,D]2 [G,DG] | %4
 [D,D]6[K:treble] [G,B,D]2 [G,G] | [G,B,G]3- [G,B,G]2 [G,B,G] [G,CG]2 [G,B,G] | %6
 [G,B,G]3 .[G,DG]3 [G,B,]2 [G,B,D] | [G,DG]3- [G,DG]2[K:bass] C, D,2 D, |[M:3/4] G,6 | %9
[M:3/8] [C,G,]2 [C,G,] |[M:9/8] [C,G,]3- [C,G,]2 [C,G,][K:treble] [G,G]2 [G,CG] | %11
 [G,B,G]6 [G,B,]2 [G,B,] | [D,D]3- [D,D]2 [D,D] [G,D]2 [G,D] | [D,D]6[K:treble] [G,B,G]2 [G,B,G] | %14
 .[G,B,G] [G,B,G]2- [G,B,G]3 [G,CG]2 [G,B,G] | [G,DG]6 [G,B,]2 [G,B,D] | %16
 [G,DG]3- [G,DG]2[K:bass] C, D,2 D, |[M:3/4] G,,6 |] %18
V:3
 x9 | x9 | x9 | B3- B2 B A-[Ac]B | x9 | x9 | x9 | x9 |[M:3/4] x6 |[M:3/8] x3 |[M:9/8] x9 | x9 | %12
 x9 | x9 | x9 | x9 | x9 |[M:3/4] x6 |] %18

